app/src/main/assets/symbols/shopping/outdoor.svg

<?xml version="1.0" encoding="UTF-8" standalone="no"?>
<svg
   xmlns:dc="http://purl.org/dc/elements/1.1/"
   xmlns:cc="http://creativecommons.org/ns#"
   xmlns:rdf="http://www.w3.org/1999/02/22-rdf-syntax-ns#"
   xmlns:svg="http://www.w3.org/2000/svg"
   xmlns="http://www.w3.org/2000/svg"
   id="svg2"
   viewBox="0 0 14 14"
   height="14"
   width="14"
   version="1.1">
  <defs
     id="defs3053" />
  <metadata
     id="metadata8">
    <rdf:RDF>
      <cc:Work
         rdf:about="">
        <dc:format>image/svg+xml</dc:format>
        <dc:type
           rdf:resource="http://purl.org/dc/dcmitype/StillImage" />
        <dc:title></dc:title>
      </cc:Work>
    </rdf:RDF>
  </metadata>
  <rect
     style="fill:none;stroke:none;visibility:hidden"
     id="canvas"
     y="0"
     x="0"
     height="14"
     width="14" />
  <path
     id="path4166"
     d="M 5.5 1.015625 A 1.5 1.5 0 0 0 4 2.515625 A 1.5 1.5 0 0 0 5.5 4.015625 A 1.5 1.5 0 0 0 7 2.515625 A 1.5 1.5 0 0 0 5.5 1.015625 z M 10 2 L 8 3 L 11 9 L 13 8 L 10 2 z M 8 4 L 6 5 L 6.2949219 6.4707031 L 4 8 L 1 7 L 1 8 L 4 10 L 6.6464844 8.234375 L 7 10 L 10 9 L 8 4 z M 1 9 L 1 14 L 2 14 L 2 9 L 1 9 z M 10 10 L 7 11 L 5 14 L 6.8339844 14 L 8.3652344 12 L 9 14 L 11 14 L 10 10 z "
     style="fill:#ac39ac;fill-opacity:1;fill-rule:evenodd;stroke:none;stroke-opacity:1" />
</svg>

<?xml version="1.0" encoding="UTF-8"?>
<svg version="1.1" viewBox="0 0 14 14" xmlns="http://www.w3.org/2000/svg" xmlns:cc="http://creativecommons.org/ns#" xmlns:dc="http://purl.org/dc/elements/1.1/" xmlns:rdf="http://www.w3.org/1999/02/22-rdf-syntax-ns#">
<metadata>
<rdf:RDF>
<cc:Work rdf:about="">
<dc:format>image/svg+xml</dc:format>
<dc:type rdf:resource="http://purl.org/dc/dcmitype/StillImage"/>
<dc:title/>
</cc:Work>
</rdf:RDF>
</metadata>
<rect width="14" height="14" fill="none" visibility="hidden"/>
<path d="m5.5 1.0156a1.5 1.5 0 0 0-1.5 1.5 1.5 1.5 0 0 0 1.5 1.5 1.5 1.5 0 0 0 1.5-1.5 1.5 1.5 0 0 0-1.5-1.5zm4.5 0.98438-2 1 3 6 2-1-3-6zm-2 2-2 1 0.29492 1.4707-2.2949 1.5293-3-1v1l3 2 2.6465-1.7656 0.35352 1.7656 3-1-2-5zm-7 5v5h1v-5h-1zm9 1-3 1-2 3h1.834l1.5312-2 0.63477 2h2l-1-4z" fill="#ac39ac" fill-rule="evenodd"/>
</svg>
